app/assets/images/heroicons/micro/arrow-top-right-on-square.svg

<svg width="16" height="16" viewBox="0 0 16 16" fill="none" xmlns="http://www.w3.org/2000/svg">
<path d="M6.21967 8.71967C5.92678 9.01256 5.92678 9.48744 6.21967 9.78033C6.51256 10.0732 6.98744 10.0732 7.28033 9.78033L12.5 4.56066V6.25C12.5 6.66421 12.8358 7 13.25 7C13.6642 7 14 6.66421 14 6.25V2.75C14 2.33579 13.6642 2 13.25 2H9.75C9.33579 2 9 2.33579 9 2.75C9 3.16421 9.33579 3.5 9.75 3.5H11.4393L6.21967 8.71967Z" fill="#0F172A"/>
<path d="M3.5 6.75C3.5 6.05964 4.05964 5.5 4.75 5.5H7C7.41421 5.5 7.75 5.16421 7.75 4.75C7.75 4.33579 7.41421 4 7 4H4.75C3.23122 4 2 5.23122 2 6.75V11.25C2 12.7688 3.23122 14 4.75 14H9.25C10.7688 14 12 12.7688 12 11.25V9C12 8.58579 11.6642 8.25 11.25 8.25C10.8358 8.25 10.5 8.58579 10.5 9V11.25C10.5 11.9404 9.94036 12.5 9.25 12.5H4.75C4.05964 12.5 3.5 11.9404 3.5 11.25V6.75Z" fill="#0F172A"/>
</svg>

<svg xmlns="http://www.w3.org/2000/svg" viewBox="0 0 16 16" fill="currentColor" aria-hidden="true" data-slot="icon">
  <path d="M6.22 8.72a.75.75 0 0 0 1.06 1.06l5.22-5.22v1.69a.75.75 0 0 0 1.5 0v-3.5a.75.75 0 0 0-.75-.75h-3.5a.75.75 0 0 0 0 1.5h1.69L6.22 8.72Z"/>
  <path d="M3.5 6.75c0-.69.56-1.25 1.25-1.25H7A.75.75 0 0 0 7 4H4.75A2.75 2.75 0 0 0 2 6.75v4.5A2.75 2.75 0 0 0 4.75 14h4.5A2.75 2.75 0 0 0 12 11.25V9a.75.75 0 0 0-1.5 0v2.25c0 .69-.56 1.25-1.25 1.25h-4.5c-.69 0-1.25-.56-1.25-1.25v-4.5Z"/>
</svg>
